X:40
T:The False Proof
D:"Rubai" by Flook
Z:Transcribed by Lionel Gueganton
R:jig
L:1/8
M:6/8
K:F#m
|: FAc cBc | cBA G2c   | BAG FFF     | EFA GEC   | 
   DFA cce | cBA G2c   | BAG FFE     |1 FGE FFC :|2 FGE F3 |
|: zAG FGE | DCB, CCB, | B,A,B, DDB, | B,CD AGE  | 
   FAG FFE | DCB, CCB, | B,CD BBA    |1 GFE FFC :|2 GFE F3 
|: FAF cFd | Fed cBA   | BBA G2c     | BAB BAF   |
   FEF cFd | Fec f3    | fed ded     |1 cBA BGE :|2 cBA B2A |

